Newaita/actions/32/format-remove-node.svg

<?xml version="1.0" encoding="UTF-8"?>
<svg xmlns="http://www.w3.org/2000/svg" xmlns:xlink="http://www.w3.org/1999/xlink" width="32pt" height="32pt" viewBox="0 0 32 32" version="1.1">
<g id="surface1">
<path style=" stroke:none;fill-rule:nonzero;fill:rgb(25.882354%,25.882354%,25.882354%);fill-opacity:1;" d="M 13.230469 6.867188 C 12.132812 6.867188 11.246094 7.75 11.246094 8.851562 L 11.246094 14.140625 C 11.246094 15.242188 12.132812 16.125 13.230469 16.125 L 18.523438 16.125 C 19.621094 16.125 20.507812 15.242188 20.507812 14.140625 L 20.507812 8.851562 C 20.507812 7.75 19.621094 6.867188 18.523438 6.867188 Z M 14.554688 8.851562 L 17.199219 8.851562 C 17.933594 8.851562 18.523438 9.441406 18.523438 10.171875 L 18.523438 12.820312 C 18.523438 13.550781 17.933594 14.140625 17.199219 14.140625 L 14.554688 14.140625 C 13.820312 14.140625 13.230469 13.550781 13.230469 12.820312 L 13.230469 10.171875 C 13.230469 9.441406 13.820312 8.851562 14.554688 8.851562 Z M 14.554688 8.851562 "/>
<path style=" stroke:none;fill-rule:nonzero;fill:rgb(25.882354%,25.882354%,25.882354%);fill-opacity:1;" d="M 1.324219 10.171875 L 11.246094 10.171875 L 11.246094 12.820312 L 1.324219 12.820312 Z M 1.324219 10.171875 "/>
<path style=" stroke:none;fill-rule:nonzero;fill:rgb(25.882354%,25.882354%,25.882354%);fill-opacity:1;" d="M 20.507812 10.171875 L 30.429688 10.171875 L 30.429688 12.820312 L 20.507812 12.820312 Z M 20.507812 10.171875 "/>
<path style=" stroke:none;fill-rule:nonzero;fill:rgb(93.725491%,32.549021%,31.37255%);fill-opacity:1;" d="M 19.070312 18.804688 C 18.683594 18.417969 18.054688 18.417969 17.667969 18.804688 L 15.796875 20.675781 L 13.925781 18.804688 C 13.535156 18.417969 12.910156 18.417969 12.523438 18.804688 C 12.132812 19.195312 12.132812 19.820312 12.523438 20.210938 L 14.394531 22.082031 L 12.523438 23.953125 C 12.132812 24.339844 12.132812 24.964844 12.523438 25.355469 C 12.910156 25.742188 13.535156 25.742188 13.925781 25.355469 L 15.796875 23.484375 L 17.667969 25.355469 C 18.054688 25.742188 18.683594 25.742188 19.070312 25.355469 C 19.460938 24.964844 19.460938 24.339844 19.070312 23.953125 L 17.199219 22.082031 L 19.070312 20.210938 C 19.460938 19.820312 19.460938 19.195312 19.070312 18.804688 Z M 19.070312 18.804688 "/>
</g>
</svg>

<svg xmlns="http://www.w3.org/2000/svg" width="32pt" height="32pt" viewBox="0 0 32 32"><path d="M13.23 6.867a1.98 1.98 0 0 0-1.984 1.985v5.289a1.98 1.98 0 0 0 1.984 1.984h5.293a1.98 1.98 0 0 0 1.985-1.984V8.85a1.98 1.98 0 0 0-1.985-1.984zm1.325 1.985h2.644c.735 0 1.324.59 1.324 1.32v2.648c0 .73-.59 1.32-1.324 1.32h-2.644a1.32 1.32 0 0 1-1.325-1.32v-2.648c0-.73.59-1.32 1.325-1.32zm0 0" fill="#424242"/><path d="M1.324 10.172h9.922v2.648H1.324zm0 0M20.508 10.172h9.922v2.648h-9.922zm0 0" fill="#424242"/><path d="M19.07 18.805a.993.993 0 0 0-1.402 0l-1.871 1.87-1.871-1.87a.993.993 0 1 0-1.403 1.406l1.872 1.871-1.872 1.871a.993.993 0 0 0 1.402 1.402l1.872-1.87 1.871 1.87a.993.993 0 0 0 1.402-1.402l-1.87-1.871 1.87-1.871a.99.99 0 0 0 0-1.406zm0 0" fill="#ef5350"/></svg>
